packages/assets/static/images/icons/sailboat.svg

<svg width="24" height="24" viewBox="0 0 24 24" xmlns="http://www.w3.org/2000/svg">
<g clip-path="url(#clip0_2087_4416)">
<path d="M23.5144 17.3249C23.4225 17.1339 23.2786 16.9727 23.0991 16.8599C22.9197 16.7471 22.712 16.6873 22.5 16.6874H13.875V15.1874H20.25C20.4679 15.1874 20.6812 15.1241 20.8638 15.0051C21.0464 14.8862 21.1905 14.7169 21.2787 14.5176C21.3669 14.3183 21.3953 14.0977 21.3605 13.8826C21.3256 13.6675 21.2291 13.4671 21.0825 13.3058L13.875 5.37738V2.43738C13.8749 2.20659 13.8038 1.98143 13.6714 1.79242C13.5389 1.60341 13.3516 1.45971 13.1347 1.38079C12.9178 1.30188 12.6819 1.29158 12.459 1.35129C12.236 1.411 12.0369 1.53782 11.8885 1.71457L2.13846 13.3396C2.00092 13.5036 1.91304 13.7035 1.88513 13.9157C1.85722 14.128 1.89045 14.3438 1.98092 14.5378C2.07138 14.7318 2.21532 14.896 2.39584 15.011C2.57635 15.1261 2.78595 15.1873 3.00002 15.1874H11.625V16.6874H1.50002C1.28805 16.6873 1.08038 16.7472 0.90094 16.86C0.721497 16.9728 0.577582 17.1341 0.485777 17.3251C0.393971 17.5162 0.35801 17.7293 0.382038 17.9399C0.406065 18.1505 0.489103 18.35 0.621584 18.5155L3.39658 21.9843C3.57177 22.2042 3.79439 22.3816 4.04781 22.5034C4.30122 22.6251 4.57888 22.688 4.86002 22.6874H19.14C19.4212 22.6879 19.6989 22.6249 19.9524 22.5029C20.2058 22.381 20.4284 22.2034 20.6035 21.9833L23.3785 18.5146C23.5108 18.3492 23.5938 18.1498 23.6179 17.9393C23.6419 17.7288 23.606 17.5159 23.5144 17.3249ZM17.7066 12.9374H13.875V8.71863L17.7066 12.9374ZM5.41221 12.9374L11.625 5.53113V12.9374H5.41221ZM18.9591 20.4374H5.04096L3.84377 18.9374H20.1563L18.9591 20.4374Z"/>
</g>
<defs>
<clipPath id="clip0_2087_4416">
<rect width="24" height="24"/>
</clipPath>
</defs>
</svg>

<svg viewBox="0 0 24 24" xmlns="http://www.w3.org/2000/svg" aria-hidden="true" fill="currentColor" height="24px" width="24px"><g clip-path="url(#a)"><path d="M23.514 17.325a1.13 1.13 0 0 0-1.014-.638h-8.625v-1.5h6.375a1.124 1.124 0 0 0 .832-1.881l-7.207-7.929v-2.94a1.125 1.125 0 0 0-1.986-.722L2.139 13.34A1.125 1.125 0 0 0 3 15.187h8.625v1.5H1.5a1.125 1.125 0 0 0-.878 1.828l2.775 3.47a1.87 1.87 0 0 0 1.463.702h14.28a1.87 1.87 0 0 0 1.463-.704l2.775-3.468a1.13 1.13 0 0 0 .136-1.19m-5.807-4.388h-3.832V8.72zm-12.295 0 6.213-7.406v7.406zm13.547 7.5H5.041l-1.197-1.5h16.312z"/></g><defs><clipPath id="a"><path d="M0 0h24v24H0z"/></clipPath></defs></svg>
